src/assets/outline/Sticker.svg

<svg width="24" height="24" viewBox="0 0 24 24"  xmlns="http://www.w3.org/2000/svg">
<path d="M11.9698 22.7502C11.3598 22.7502 10.7298 22.7002 10.0898 22.5902C5.68981 21.8402 2.09981 18.2402 1.36981 13.8202C0.789808 10.3102 1.87981 6.88015 4.36981 4.39015C6.85981 1.90015 10.2898 0.820153 13.7898 1.39015C18.1998 2.12015 21.8098 5.70015 22.5598 10.1002C22.7198 11.0702 22.7598 12.0202 22.6798 12.9202V12.9302C22.6598 13.1602 22.6198 13.3802 22.5598 13.6002C22.4898 13.8502 22.2998 14.0402 22.0598 14.1202C21.8198 14.2002 21.5498 14.1402 21.3498 13.9802C20.4098 13.1902 19.2098 12.7502 17.9698 12.7502C15.0698 12.7502 12.7198 15.1102 12.7198 18.0002C12.7198 19.2402 13.1598 20.4402 13.9498 21.3802C14.1198 21.5802 14.1698 21.8402 14.0898 22.0902C14.0098 22.3402 13.8198 22.5202 13.5698 22.5902C13.3498 22.6502 13.1298 22.6902 12.8998 22.7102C12.5998 22.7402 12.2898 22.7502 11.9698 22.7502ZM11.9698 2.75015C9.51981 2.75015 7.19981 3.70015 5.43981 5.46015C3.29981 7.60015 2.35981 10.5602 2.85981 13.5802C3.48981 17.3702 6.55981 20.4702 10.3498 21.1102C10.9498 21.2102 11.5198 21.2702 12.0698 21.2502C11.5298 20.2602 11.2398 19.1402 11.2398 18.0002C11.2398 14.2802 14.2698 11.2502 17.9898 11.2502C19.1298 11.2502 20.2498 11.5402 21.2398 12.0802C21.2498 11.5302 21.1998 10.9602 21.0998 10.3602C20.4598 6.58015 17.3598 3.50015 13.5698 2.88015C13.0198 2.79015 12.4898 2.75015 11.9698 2.75015Z" />
<path d="M13.3802 22.61C13.1602 22.61 12.9502 22.52 12.8102 22.34C11.7902 21.13 11.2202 19.59 11.2202 18C11.2202 14.28 14.2502 11.25 17.9702 11.25C19.5602 11.25 21.1002 11.81 22.3102 12.84C22.5402 13.03 22.6302 13.34 22.5502 13.62C22.3702 14.24 22.0502 14.78 21.5902 15.24L15.2102 21.62C14.7502 22.08 14.2002 22.4 13.5902 22.58C13.5202 22.6 13.4502 22.61 13.3802 22.61ZM17.9702 12.75C15.0702 12.75 12.7202 15.11 12.7202 18C12.7202 19.06 13.0402 20.09 13.6302 20.95C13.8202 20.85 13.9902 20.72 14.1502 20.56L20.5302 14.18C20.6902 14.02 20.8202 13.85 20.9202 13.66C20.0602 13.07 19.0302 12.75 17.9702 12.75Z" />
</svg>

<?xml version="1.0" encoding="UTF-8"?>
<svg width="24" height="24" viewBox="0 0 24 24" xmlns="http://www.w3.org/2000/svg">
 <path d="m11.97 22.75c-0.61 0-1.24-0.05-1.88-0.16-4.4-0.75-7.99-4.35-8.72-8.77-0.58-3.51 0.51-6.94 3-9.43s5.92-3.57 9.42-3c4.41 0.73 8.02 4.31 8.77 8.71 0.16 0.97 0.2 1.92 0.12 2.82v0.01c-0.02 0.23-0.06 0.45-0.12 0.67-0.07 0.25-0.26 0.44-0.5 0.52s-0.51 0.02-0.71-0.14c-0.94-0.79-2.14-1.23-3.38-1.23-2.9 0-5.25 2.36-5.25 5.25 0 1.24 0.44 2.44 1.23 3.38 0.17 0.2 0.22 0.46 0.14 0.71s-0.27 0.43-0.52 0.5c-0.22 0.06-0.44 0.1-0.67 0.12-0.3 0.03-0.61 0.04-0.93 0.04zm0-20c-2.45 0-4.77 0.95-6.53 2.71-2.14 2.14-3.08 5.1-2.58 8.12 0.63 3.79 3.7 6.89 7.49 7.53 0.6 0.1 1.17 0.16 1.72 0.14-0.54-0.99-0.83-2.11-0.83-3.25 0-3.72 3.03-6.75 6.75-6.75 1.14 0 2.26 0.29 3.25 0.83 0.01-0.55-0.04-1.12-0.14-1.72-0.64-3.78-3.74-6.86-7.53-7.48-0.55-0.09-1.08-0.13-1.6-0.13z"/>
 <path d="m13.38 22.61c-0.22 0-0.43-0.09-0.57-0.27-1.02-1.21-1.59-2.75-1.59-4.34 0-3.72 3.03-6.75 6.75-6.75 1.59 0 3.13 0.56 4.34 1.59 0.23 0.19 0.32 0.5 0.24 0.78-0.18 0.62-0.5 1.16-0.96 1.62l-6.38 6.38c-0.46 0.46-1.01 0.78-1.62 0.96-0.07 0.02-0.14 0.03-0.21 0.03zm4.59-9.86c-2.9 0-5.25 2.36-5.25 5.25 0 1.06 0.32 2.09 0.91 2.95 0.19-0.1 0.36-0.23 0.52-0.39l6.38-6.38c0.16-0.16 0.29-0.33 0.39-0.52-0.86-0.59-1.89-0.91-2.95-0.91z"/>
</svg>
